(1001)
(T01 D=5 CR=0 - ZMIN=0.5 - FLAT END MILL)
(T02 D=3 CR=0 - ZMIN=-4 - FLAT END MILL)
N10 G00 G90 G40 G80
N15 G94 G49
(FILE OUTPUT IN MM. PLEASE ENSURE THE UNIT IS SET CORRECTLY ON THE CONTROL)
N20 G28 G91 Z0
N25 G90

(FACE1)
N30 G54
N35 G17 G90 G94
N40 G100 T01 X27.25 Y0.746 G43 Z19 L02 H01 D01 S5000 M03
N45 M08
N50 G00 X27.25 Y0.746 Z19
N55 G00 Z9
N60 G01 Z4.5 F333
N65 G18 G03 X26.75 Z4 I-0.5 F1000
N70 G01 X26.51
N75 G01 X-2.51
N80 G17 G02 Y3.957 J1.606
N85 G01 X26.51
N90 G03 Y7.168 J1.605
N95 G01 X-2.51
N100 G02 Y10.379 J1.606
N105 G01 X26.51
N110 G03 Y13.59 J1.606
N115 G01 X-2.51
N120 G18 G03 X-3.01 Z4.5 K0.5
N125 G00 Z19
N130 G17

(2D ADAPTIVE1)
N135 G00 X11.624 Y-4.026
N140 G00 Z19
N145 G00 Z9
N150 G00 Z1.5
N155 G01 Z1 F1000
N160 G01 X11.618 Y-4.022 Z0.913
N165 G01 X11.599 Y-4.01 Z0.829
N170 G01 X11.568 Y-3.989 Z0.75
N175 G01 X11.526 Y-3.962 Z0.679
N180 G01 X11.475 Y-3.928 Z0.617
N185 G01 X11.415 Y-3.889 Z0.567
N190 G01 X11.349 Y-3.846 Z0.53
N195 G01 X11.279 Y-3.8 Z0.508
N200 G01 X11.206 Y-3.752 Z0.5
N205 G03 X8.756 Y-2.504 I-6.987 J-10.683
N210 G01 X8.602 Y-2.451
N215 G01 X8.235 Y-2.315
N220 G01 X8.051 Y-2.235
N225 G01 X7.133 Y-1.826
N230 G01 X6.949 Y-1.741
N235 G01 X6.532 Y-1.536
N240 G01 X6.458 Y-1.495
N245 G01 X6.193 Y-1.365
N250 G01 X5.756 Y-1.192
N255 G01 X5.164 Y-1.012
N260 G01 X4.375 Y-0.839
N265 G01 X3.575 Y-0.726
N270 G01 X2.77 Y-0.65
N275 G01 X2.367 Y-0.625
N280 G01 X1.966 Y-0.574
N285 G01 X1.604 Y-0.393
N290 G01 X0.972 Y0.11
N295 G01 X0.515 Y0.777
N300 G01 X0.194 Y1.519
N305 G01 X-0.029 Y2.296
N310 G01 X-0.181 Y3.089
N315 G01 X-0.285 Y3.891
N320 G01 X-0.355 Y4.696
N325 G01 X-0.403 Y5.503
N330 G01 X-0.435 Y6.31
N335 G01 X-0.456 Y7.118
N340 G01 X-0.471 Y7.926
N345 G01 X-0.48 Y8.735
N350 G01 X-0.487 Y9.543
N355 G01 X-0.491 Y10.351
N360 G01 X-0.496 Y11.968
N365 G01 X-0.498 Y13.584
N370 G01 X-0.486 Y13.786
N375 G01 X-0.393 Y14.179
N380 G01 X0.031 Y14.867
N385 G01 X0.664 Y15.37
N390 G01 X1.39 Y15.726
N395 G01 X2.159 Y15.973
N400 G01 X2.949 Y16.143
N405 G01 X3.749 Y16.259
N410 G01 X4.553 Y16.338
N415 G01 X4.772 Y16.38
N420 G01 X4.979 Y16.46
N425 G01 X5.169 Y16.577
N430 G01 X5.296 Y16.672
N435 G01 X6.233 Y17.352
N440 G01 X6.398 Y17.461
N445 G01 X6.532 Y17.536
N450 G01 X6.949 Y17.741
N455 G01 X7.133 Y17.826
N460 G01 X8.128 Y18.269
N465 G01 X8.196 Y18.309 Z0.52
N470 G02 X8.796 Y18.681 Z0.7 I3.664 J-5.232
N475 G02 X9.16 Y18.866 I3.064 J-5.604
N480 G01 X9.223 Y18.89
N485 G01 X9.288 Y18.906
N490 G01 X9.354 Y18.912
N495 G01 X13.967 Y19.067
N500 G01 X14.034 Y19.065
N505 G01 X14.1 Y19.054
N510 G01 X14.164 Y19.034
N515 G02 X14.55 Y18.87 I-2.305 J-5.957
N520 G02 X15.163 Y18.543 Z0.523 I-2.691 J-5.793
N525 G01 X15.203 Y18.522 Z0.511
N530 G01 X15.244 Y18.504 Z0.5
N535 G01 X15.398 Y18.451
N540 G01 X15.765 Y18.315
N545 G01 X15.949 Y18.235
N550 G01 X16.867 Y17.826
N555 G01 X17.051 Y17.741
N560 G01 X17.468 Y17.536
N565 G01 X17.542 Y17.495
N570 G01 X17.807 Y17.365
N575 G01 X18.244 Y17.192
N580 G01 X18.836 Y17.012
N585 G01 X19.625 Y16.839
N590 G01 X20.425 Y16.726
N595 G01 X21.23 Y16.65
N600 G01 X21.633 Y16.625
N605 G01 X22.034 Y16.574
N610 G01 X22.396 Y16.393
N615 G01 X23.028 Y15.89
N620 G01 X23.485 Y15.223
N625 G01 X23.806 Y14.481
N630 G01 X24.029 Y13.705
N635 G01 X24.181 Y12.911
N640 G01 X24.285 Y12.109
N645 G01 X24.355 Y11.304
N650 G01 X24.403 Y10.497
N655 G01 X24.435 Y9.69
N660 G01 X24.456 Y8.882
N665 G01 X24.471 Y8.074
N670 G01 X24.48 Y7.265
N675 G01 X24.487 Y6.457
N680 G01 X24.491 Y5.649
N685 G01 X24.496 Y4.033
N690 G01 X24.498 Y2.416
N695 G01 X24.486 Y2.214
N700 G01 X24.393 Y1.821
N705 G01 X23.969 Y1.133
N710 G01 X23.336 Y0.63
N715 G01 X22.611 Y0.274
N720 G01 X21.841 Y0.027
N725 G01 X21.051 Y-0.143
N730 G01 X20.251 Y-0.259
N735 G01 X19.447 Y-0.338
N740 G01 X19.228 Y-0.38
N745 G01 X19.02 Y-0.46
N750 G01 X18.831 Y-0.577
N755 G01 X18.704 Y-0.672
N760 G01 X17.767 Y-1.352
N765 G01 X17.602 Y-1.461
N770 G01 X17.468 Y-1.536
N775 G01 X17.051 Y-1.741
N780 G01 X16.867 Y-1.826
N785 G01 X15.872 Y-2.269
N790 G03 X15.649 Y-2.484 Z0.58 I0.219 J-0.449
N795 G02 X15.409 Y-2.888 Z0.7 I-4.332 J2.303
N800 G02 X12.752 Y-4.872 I-4.091 J2.708
N805 G01 X12.691 Y-4.887
N810 G01 X12.629 Y-4.894
N815 G01 X12.566 Y-4.892
N820 G01 X9.333 Y-4.632
N825 G01 X9.271 Y-4.624
N830 G01 X9.21 Y-4.607
N835 G01 X9.152 Y-4.583
N840 G02 X6.832 Y-2.167 I2.165 J4.402
N845 G02 X6.674 Y-1.762 Z0.589 I4.486 J1.986
N850 G03 X6.458 Y-1.495 Z0.5 I-0.473 J-0.161
N855 G01 X6.398 Y-1.461
N860 G01 X6.233 Y-1.352
N865 G01 X5.296 Y-0.672
N870 G01 X4.736 Y-0.252
N875 G01 X4.561 Y-0.09
N880 G01 X4.451 Y0.012
N885 G01 X3.804 Y0.496
N890 G01 X3.248 Y1.082
N895 G01 X2.799 Y1.755
N900 G01 X2.452 Y2.485
N905 G01 X2.371 Y2.723
N910 G01 X2.345 Y2.792
N915 G01 X2.314 Y2.86
N920 G01 X2.28 Y2.925
N925 G03 X1.592 Y3.087 Z0.7 I-0.425 J-0.263
N930 G03 X1.456 Y2.36 I0.263 J-0.425
N935 G01 X3.787 Y-0.722
N940 G03 X4.516 Y-0.795 I0.399 J0.302
N945 G03 X4.561 Y-0.09 Z0.5 I-0.331 J0.375
N950 G01 X4.194 Y0.299
N955 G01 X4.01 Y0.5
N960 G01 X3.531 Y1.032
N965 G01 X3.069 Y1.582
N970 G01 X2.949 Y1.765
N975 G01 X2.357 Y2.79
N980 G01 X2.104 Y3.232
N985 G01 X2.012 Y3.416
N990 G01 X1.861 Y3.782
N995 G01 X1.806 Y3.919
N1000 G01 X1.433 Y5.066
N1005 G01 X1.322 Y5.433
N1010 G01 X1.255 Y5.657
N1015 G01 X1.228 Y5.799
N1020 G01 X1.196 Y5.983
N1025 G01 X1.061 Y7.266
N1030 G01 X1.042 Y7.45
N1035 G01 X1.001 Y8
N1040 G01 X1.042 Y8.55
N1045 G01 X1.176 Y9.834
N1050 G01 X1.196 Y10.017
N1055 G01 X1.228 Y10.201
N1060 G01 X1.341 Y11.001
N1065 G01 X1.403 Y11.4
N1070 G01 X1.682 Y12.159
N1075 G01 X1.885 Y12.402
N1080 G01 X1.94 Y12.473
N1085 G01 X1.989 Y12.547
N1090 G01 X2.032 Y12.625
N1095 G03 X1.788 Y13.288 Z0.7 I-0.454 J0.21
N1100 G03 X1.104 Y12.992 I-0.21 J-0.454
N1105 G01 X0.266 Y10.47
N1110 G03 X0.629 Y9.825 I0.475 J-0.158
N1115 G03 X1.228 Y10.201 Z0.5 I0.111 J0.487
N1120 G01 X1.255 Y10.343
N1125 G01 X1.377 Y10.751
N1130 G01 X1.439 Y10.951
N1135 G01 X1.806 Y12.081
N1140 G01 X1.861 Y12.218
N1145 G01 X2.012 Y12.584
N1150 G01 X2.104 Y12.768
N1155 G01 X2.419 Y13.318
N1160 G01 X2.949 Y14.235
N1165 G01 X3.069 Y14.418
N1170 G01 X3.531 Y14.968
N1175 G01 X4.027 Y15.519
N1180 G01 X4.195 Y15.702
N1185 G01 X4.561 Y16.09
N1190 G01 X4.736 Y16.252
N1195 G01 X5.169 Y16.577
N1200 G03 X5.244 Y17.28 I-0.314 J0.389
N1205 G01 X5.19 Y17.348 Z0.508
N1210 G01 X5.137 Y17.413 Z0.53
N1215 G01 X5.088 Y17.475 Z0.567
N1220 G01 X5.043 Y17.53 Z0.617
N1225 G01 X5.004 Y17.578 Z0.679
N1230 G01 X4.973 Y17.617 Z0.75
N1235 G01 X4.95 Y17.646 Z0.829
N1240 G01 X4.935 Y17.663 Z0.913
N1245 G01 X4.931 Y17.669 Z1
N1250 G00 Z9
N1255 G00 X16.738 Y18.486
N1260 G00 Z1.5
N1265 G01 Z1 F1000
N1270 G01 X16.742 Y18.479 Z0.913
N1275 G01 X16.753 Y18.46 Z0.829
N1280 G01 X16.772 Y18.428 Z0.75
N1285 G01 X16.797 Y18.385 Z0.679
N1290 G01 X16.828 Y18.332 Z0.617
N1295 G01 X16.864 Y18.27 Z0.567
N1300 G01 X16.904 Y18.202 Z0.53
N1305 G01 X16.946 Y18.129 Z0.508
N1310 G01 X16.99 Y18.054 Z0.5
N1315 G03 X17.542 Y17.495 I1.367 J0.797
N1320 G01 X17.602 Y17.461
N1325 G01 X17.767 Y17.352
N1330 G01 X18.704 Y16.672
N1335 G01 X19.264 Y16.252
N1340 G01 X19.439 Y16.09
N1345 G01 X19.549 Y15.988
N1350 G01 X20.196 Y15.504
N1355 G01 X20.752 Y14.918
N1360 G01 X21.201 Y14.245
N1365 G01 X21.548 Y13.515
N1370 G01 X21.629 Y13.277
N1375 G01 X21.655 Y13.208
N1380 G01 X21.686 Y13.14
N1385 G01 X21.72 Y13.075
N1390 G03 X22.408 Y12.913 Z0.7 I0.425 J0.263
N1395 G03 X22.544 Y13.64 I-0.263 J0.425
N1400 G01 X20.213 Y16.722
N1405 G03 X19.484 Y16.795 I-0.399 J-0.302
N1410 G03 X19.439 Y16.09 Z0.5 I0.331 J-0.375
N1415 G01 X19.806 Y15.701
N1420 G01 X19.99 Y15.5
N1425 G01 X20.469 Y14.968
N1430 G01 X20.931 Y14.418
N1435 G01 X21.051 Y14.235
N1440 G01 X21.643 Y13.21
N1445 G01 X21.896 Y12.768
N1450 G01 X21.989 Y12.584
N1455 G01 X22.139 Y12.218
N1460 G01 X22.194 Y12.081
N1465 G01 X22.567 Y10.934
N1470 G01 X22.678 Y10.567
N1475 G01 X22.745 Y10.343
N1480 G01 X22.772 Y10.201
N1485 G01 X22.804 Y10.017
N1490 G01 X22.939 Y8.734
N1495 G01 X22.958 Y8.55
N1500 G01 X22.999 Y8
N1505 G01 X22.958 Y7.45
N1510 G01 X22.824 Y6.166
N1515 G01 X22.804 Y5.983
N1520 G01 X22.772 Y5.799
N1525 G01 X22.659 Y4.999
N1530 G01 X22.597 Y4.6
N1535 G01 X22.318 Y3.841
N1540 G01 X22.115 Y3.598
N1545 G01 X22.06 Y3.527
N1550 G01 X22.011 Y3.453
N1555 G01 X21.968 Y3.375
N1560 G03 X22.212 Y2.712 Z0.7 I0.454 J-0.21
N1565 G03 X22.897 Y3.008 I0.21 J0.454
N1570 G01 X23.734 Y5.53
N1575 G03 X23.371 Y6.175 I-0.475 J0.158
N1580 G01 X23.348 Y6.18 Z0.694
N1585 G03 X22.772 Y5.799 Z0.5 I-0.088 J-0.492
N1590 G01 X22.745 Y5.657
N1595 G01 X22.623 Y5.249
N1600 G01 X22.561 Y5.049
N1605 G01 X22.194 Y3.919
N1610 G01 X22.139 Y3.782
N1615 G01 X21.989 Y3.416
N1620 G01 X21.896 Y3.232
N1625 G01 X21.581 Y2.682
N1630 G01 X21.051 Y1.765
N1635 G01 X20.931 Y1.582
N1640 G01 X20.469 Y1.032
N1645 G01 X19.973 Y0.481
N1650 G01 X19.805 Y0.298
N1655 G01 X19.439 Y-0.09
N1660 G01 X19.264 Y-0.252
N1665 G01 X18.831 Y-0.577
N1670 G03 X18.67 Y-0.808 I0.314 J-0.389
N1675 G01 X18.657 Y-0.889 Z0.507
N1680 G01 X18.645 Y-0.966 Z0.527
N1685 G01 X18.659 Y-1.037 Z0.558
N1690 G01 X18.672 Y-1.102 Z0.6
N1695 G01 X18.684 Y-1.16 Z0.653
N1700 G01 X18.709 Y-1.202 Z0.712
N1705 G01 X18.729 Y-1.236 Z0.778
N1710 G01 X18.743 Y-1.26 Z0.849
N1715 G01 X18.752 Y-1.275 Z0.923
N1720 G01 X18.755 Y-1.28 Z1
N1725 G00 Z9
N1730 G00 X11.606 Y6.255
N1735 G00 Z6.5
N1740 G03 X13.751 Y8.369 Z6.375 I0.394 J1.745 F333
N1745 G03 X10.938 Y9.436 Z6.25 I-1.748 J-0.369
N1750 G03 X11.141 Y6.438 Z6.125 I1.063 J-1.434
N1755 G03 X13.778 Y7.871 Z6 I0.859 J1.562
N1760 G03 X11.379 Y9.668 Z5.875 I-1.776 J0.13
N1765 G03 X10.746 Y6.742 Z5.75 I0.622 J-1.666
N1770 G03 X13.666 Y7.386 Z5.625 I1.253 J1.258
N1775 G03 X11.866 Y9.768 Z5.5 I-1.664 J0.614
N1780 G03 X10.453 Y7.142 Z5.375 I0.136 J-1.766
N1785 G03 X13.425 Y6.953 Z5.25 I1.547 J0.859
N1790 G03 X12.359 Y9.73 Z5.125 I-1.424 J1.047
N1795 G03 X10.282 Y7.606 Z5 I-0.358 J-1.728
N1800 G03 X13.075 Y6.604 Z4.875 I1.718 J0.395
N1805 G03 X12.821 Y9.557 Z4.75 I-1.074 J1.395
N1810 G03 X10.246 Y8.098 Z4.625 I-0.819 J-1.556
N1815 G03 X12.644 Y6.368 Z4.5 I1.754 J-0.096
N1820 G03 X13.216 Y9.265 Z4.375 I-0.643 J1.632
N1825 G03 X10.348 Y8.578 Z4.25 I-1.214 J-1.263
N1830 G03 X12.166 Y6.26 Z4.125 I1.652 J-0.576
N1835 G03 X13.513 Y8.875 Z4 I-0.165 J1.74
N1840 G03 X10.578 Y9.009 Z3.875 I-1.51 J-0.875
N1845 G03 X11.678 Y6.289 Z3.75 I1.423 J-1.007
N1850 G03 X13.689 Y8.421 Z3.625 I0.322 J1.711
N1855 G03 X10.917 Y9.359 Z3.5 I-1.687 J-0.42
N1860 G03 X11.22 Y6.451 Z3.375 I1.084 J-1.357
N1865 G03 X13.733 Y7.937 Z3.25 I0.78 J1.549
N1870 G03 X11.338 Y9.6 Z3.125 I-1.731 J0.063
N1875 G03 X10.826 Y6.733 Z3 I0.664 J-1.598
N1880 G03 X13.641 Y7.462 Z2.875 I1.174 J1.268
N1885 G03 X11.807 Y9.715 Z2.75 I-1.64 J0.538
N1890 G03 X10.526 Y7.111 Z2.625 I0.194 J-1.713
N1895 G03 X13.423 Y7.032 Z2.5 I1.474 J0.89
N1900 G03 X12.288 Y9.695 Z2.375 I-1.421 J0.967
N1905 G03 X10.344 Y7.556 Z2.25 I-0.286 J-1.693
N1910 G03 X13.095 Y6.681 Z2.125 I1.656 J0.445
N1915 G03 X12.743 Y9.543 Z2 I-1.093 J1.318
N1920 G03 X10.292 Y8.033 Z1.875 I-0.741 J-1.541
N1925 G03 X12.684 Y6.436 Z1.75 I1.708 J-0.031
N1930 G03 X13.137 Y9.272 Z1.625 I-0.683 J1.563
N1935 G03 X10.374 Y8.503 Z1.5 I-1.135 J-1.271
N1940 G03 X12.223 Y6.315 Z1.375 I1.626 J-0.501
N1945 G03 X13.439 Y8.904 Z1.25 I-0.222 J1.685
N1950 G03 X10.582 Y8.93 Z1.125 I-1.437 J-0.903
N1955 G03 X11.748 Y6.326 Z1 I1.418 J-0.928
N1960 G03 X13.627 Y8.469 Z0.875 I0.252 J1.674
N1965 G03 X10.899 Y9.282 Z0.75 I-1.625 J-0.468
N1970 G03 X11.297 Y6.467 Z0.625 I1.102 J-1.28
N1975 G03 X13.686 Y8 Z0.5 I0.703 J1.533
N1980 G03 X10.313 I-1.686
N1985 G03 X13.686 I1.686
N1990 G01 X13.713 Y8.808 F1000
N1995 G01 X13.735 Y8.96
N2000 G01 X13.709 Y9.111
N2005 G01 X13.636 Y9.246
N2010 G01 X13.561 Y9.343
N2015 G01 X13.459 Y9.467
N2020 G01 X13.378 Y9.535
N2025 G01 X13.102 Y9.746
N2030 G01 X13.01 Y9.806
N2035 G01 X12.946 Y9.834
N2040 G01 X12.643 Y9.959
N2045 G01 X12.551 Y9.994
N2050 G01 X12.459 Y10.014
N2055 G01 X12.092 Y10.062
N2060 G01 X12 Y10.07
N2065 G01 X11.908 Y10.062
N2070 G01 X11.541 Y10.014
N2075 G01 X11.449 Y9.994
N2080 G01 X11.357 Y9.959
N2085 G01 X11.054 Y9.834
N2090 G01 X10.99 Y9.806
N2095 G01 X10.898 Y9.746
N2100 G01 X10.622 Y9.535
N2105 G01 X10.541 Y9.467
N2110 G01 X10.439 Y9.343
N2115 G01 X10.252 Y9.1
N2120 G01 X10.194 Y9.009
N2125 G01 X10.154 Y8.917
N2130 G01 X10.071 Y8.718
N2135 G01 X10.006 Y8.55
N2140 G01 X9.974 Y8.367
N2145 G01 X9.95 Y8.183
N2150 G01 X9.93 Y8
N2155 G01 X9.95 Y7.817
N2160 G01 X9.974 Y7.633
N2165 G01 X10.006 Y7.45
N2170 G01 X10.078 Y7.266
N2175 G01 X10.154 Y7.083
N2180 G01 X10.194 Y6.991
N2185 G01 X10.255 Y6.896
N2190 G01 X10.439 Y6.657
N2195 G01 X10.541 Y6.533
N2200 G01 X10.622 Y6.465
N2205 G01 X10.898 Y6.254
N2210 G01 X10.99 Y6.194
N2215 G01 X11.054 Y6.166
N2220 G01 X11.357 Y6.04
N2225 G01 X11.449 Y6.006
N2230 G01 X11.541 Y5.986
N2235 G01 X11.908 Y5.938
N2240 G01 X12 Y5.93
N2245 G01 X12.092 Y5.938
N2250 G01 X12.459 Y5.986
N2255 G01 X12.551 Y6.006
N2260 G01 X12.643 Y6.04
N2265 G01 X12.946 Y6.166
N2270 G01 X13.01 Y6.194
N2275 G01 X13.102 Y6.254
N2280 G01 X13.378 Y6.465
N2285 G01 X13.459 Y6.533
N2290 G01 X13.561 Y6.657
N2295 G01 X13.748 Y6.9
N2300 G01 X13.806 Y6.991
N2305 G01 X13.846 Y7.083
N2310 G01 X13.929 Y7.283
N2315 G01 X13.994 Y7.45
N2320 G01 X14.026 Y7.633
N2325 G01 X14.05 Y7.817
N2330 G01 X14.07 Y8
N2335 G01 X14.05 Y8.183
N2340 G01 X14.026 Y8.367
N2345 G01 X13.994 Y8.55
N2350 G01 X13.922 Y8.734
N2355 G01 X13.846 Y8.917
N2360 G01 X13.806 Y9.009
N2365 G01 X13.745 Y9.104
N2370 G01 X13.636 Y9.246
N2375 G03 X13.251 Y9.428 I-0.386 J-0.318
N2380 G01 X13.25
N2385 G03 X12.932 Y9.314 J-0.5
N2390 G01 X12.865 Y9.259 Z0.508
N2395 G01 X12.8 Y9.205 Z0.53
N2400 G01 X12.739 Y9.155 Z0.567
N2405 G01 X12.684 Y9.11 Z0.617
N2410 G01 X12.636 Y9.07 Z0.679
N2415 G01 X12.598 Y9.039 Z0.75
N2420 G01 X12.569 Y9.015 Z0.829
N2425 G01 X12.552 Y9.001 Z0.913
N2430 G01 X12.546 Y8.996 Z1
N2435 G00 Z19
N2440 M09
N2445 M05
N2450 G28 G91 Z0
N2455 G90
N2460 G49

(2D POCKET1)
N2465 G54
N2470 M01
N2475 G17 G90 G94
N2480 G100 T02 X11.343 Y9.284 G43 Z19 L01 H02 D02 S5000 M03
N2485 M08
N2490 G00 X11.343 Y9.284 Z19
N2495 G00 Z9
N2500 G01 Z6.8 F333
N2505 G01 X11.308 Y9.3 Z6.653
N2510 G01 X11.21 Y9.34 Z6.544
N2515 G01 X11.071 Y9.382 Z6.5
N2520 G03 X10.379 Y6.618 Z6.344 I-0.346 J-1.382
N2525 G03 X11.071 Y9.382 Z6.187 I0.346 J1.382
N2530 G03 X10.379 Y6.618 Z6.031 I-0.346 J-1.382
N2535 G03 X11.071 Y9.382 Z5.875 I0.346 J1.382
N2540 G03 X10.379 Y6.618 Z5.718 I-0.346 J-1.382
N2545 G03 X11.071 Y9.382 Z5.562 I0.346 J1.382
N2550 G03 X10.379 Y6.618 Z5.406 I-0.346 J-1.382
N2555 G03 X11.071 Y9.382 Z5.249 I0.346 J1.382
N2560 G03 X10.379 Y6.618 Z5.093 I-0.346 J-1.382
N2565 G03 X11.071 Y9.382 Z4.937 I0.346 J1.382
N2570 G03 X10.379 Y6.618 Z4.78 I-0.346 J-1.382
N2575 G03 X11.071 Y9.382 Z4.624 I0.346 J1.382
N2580 G03 X10.379 Y6.618 Z4.468 I-0.346 J-1.382
N2585 G03 X11.071 Y9.382 Z4.311 I0.346 J1.382
N2590 G03 X10.379 Y6.618 Z4.155 I-0.346 J-1.382
N2595 G03 X11.071 Y9.382 Z3.999 I0.346 J1.382
N2600 G03 X10.379 Y6.618 Z3.842 I-0.346 J-1.382
N2605 G03 X11.071 Y9.382 Z3.686 I0.346 J1.382
N2610 G03 X10.379 Y6.618 Z3.53 I-0.346 J-1.382
N2615 G03 X11.071 Y9.382 Z3.373 I0.346 J1.382
N2620 G03 X10.379 Y6.618 Z3.217 I-0.346 J-1.382
N2625 G03 X11.071 Y9.382 Z3.061 I0.346 J1.382
N2630 G03 X10.379 Y6.618 Z2.904 I-0.346 J-1.382
N2635 G03 X11.071 Y9.382 Z2.748 I0.346 J1.382
N2640 G03 X10.379 Y6.618 Z2.592 I-0.346 J-1.382
N2645 G03 X11.071 Y9.382 Z2.435 I0.346 J1.382
N2650 G03 X10.379 Y6.618 Z2.279 I-0.346 J-1.382
N2655 G03 X11.071 Y9.382 Z2.123 I0.346 J1.382
N2660 G03 X10.379 Y6.618 Z1.966 I-0.346 J-1.382
N2665 G03 X11.071 Y9.382 Z1.81 I0.346 J1.382
N2670 G03 X10.379 Y6.618 Z1.654 I-0.346 J-1.382
N2675 G03 X11.071 Y9.382 Z1.497 I0.346 J1.382
N2680 G03 X10.379 Y6.618 Z1.341 I-0.346 J-1.382
N2685 G03 X11.071 Y9.382 Z1.185 I0.346 J1.382
N2690 G03 X10.379 Y6.618 Z1.028 I-0.346 J-1.382
N2695 G03 X11.071 Y9.382 Z0.872 I0.346 J1.382
N2700 G03 X10.379 Y6.618 Z0.716 I-0.346 J-1.382
N2705 G03 X11.071 Y9.382 Z0.559 I0.346 J1.382
N2710 G03 X10.379 Y6.618 Z0.403 I-0.346 J-1.382
N2715 G03 X11.071 Y9.382 Z0.247 I0.346 J1.382
N2720 G03 X10.379 Y6.618 Z0.09 I-0.346 J-1.382
N2725 G03 X12.15 Y8 Z0 I0.346 J1.382
N2730 G03 X11.85 I-0.15 F1000
N2735 G03 X12.15 I0.15
N2740 G02 X12.578 Y8.871 I1.101
N2745 G03 X12.354 Y9.816 I-0.326 J0.422
N2750 G03 X11.646 Y6.184 I-0.354 J-1.816
N2755 G03 X12.354 Y9.816 I0.354 J1.816
N2760 G02 X11.374 Y10.657 I0.25 J1.282
N2765 G03 X10.159 Y11.094 I-0.787 J-0.282
N2770 G03 X13.841 Y4.906 I1.841 J-3.094
N2775 G03 X10.159 Y11.094 I-1.841 J3.094
N2780 G01 X10.114 Y11.059 Z0.011
N2785 G01 X10.076 Y11.015 Z0.023
N2790 G01 X10.052 Y10.973 Z0.055
N2795 G01 X10.034 Y10.928 Z0.088
N2800 G01 X10.023 Y10.864 Z0.185
N2805 G01 Y10.841 Z0.3
N2810 G00 Z9
N2815 G00 X-2.003 Y12.56
N2820 G01 Z0.3 F333
N2825 G01 X-2 Y12.567 Z0.233 F1000
N2830 G01 X-1.991 Y12.587 Z0.17
N2835 G01 X-1.976 Y12.62 Z0.113
N2840 G01 X-1.957 Y12.663 Z0.065
N2845 G01 X-1.934 Y12.715 Z0.03
N2850 G01 X-1.909 Y12.773 Z0.008
N2855 G01 X-1.881 Y12.834 Z0
N2860 G01 X-1.395 Y13.933
N2865 G02 X0.759 Y17.394 I13.395 J-5.933
N2870 G03 X0.57 Y17.621 I-0.115 J0.096
N2875 G01 X-1.897 Y16.247
N2880 G01 X-1.929 Y16.223
N2885 G01 X-1.954 Y16.192
N2890 G01 X-1.969 Y16.155
N2895 G01 X-1.974 Y16.116
N2900 G01 X-1.969 Y-0.124
N2905 G01 X-1.964 Y-0.163
N2910 G01 X-1.949 Y-0.2
N2915 G01 X-1.924 Y-0.231
N2920 G01 X-1.892 Y-0.255
N2925 G01 X0.575 Y-1.627
N2930 G03 X0.763 Y-1.4 I0.073 J0.131
N2935 G02 X-1.399 Y2.075 I11.237 J9.4
N2940 G03 X-1.97 Y2.287 I-0.389 J-0.172
N2945 G03 X-2.165 Y1.709 I0.183 J-0.383
N2950 G01 X-1.25 Y-0.07
N2955 G01 X-1.211 Y-0.133
N2960 G01 X-1.161 Y-0.187
N2965 G01 X0.437 Y-1.673
N2970 G01 X0.486 Y-1.711
N2975 G01 X0.539 Y-1.743
N2980 G01 X0.597 Y-1.766
N2985 G01 X0.657 Y-1.781
N2990 G01 X2.727 Y-2.124
N2995 G03 X3.089 Y-1.396 I0.07 J0.419
N3000 G02 X3.092 Y17.399 I8.911 J9.396
N3005 G01 X3.155 Y17.547
N3010 G01 X23.19 Y17.529
N3015 G01 X23.237 Y17.4
N3020 G02 X25.399 Y13.925 I-11.237 J-9.4
N3025 G01 X25.411 Y13.885
N3030 G01 X25.416 Y13.844
N3035 G01 X25.412 Y2.148
N3040 G01 X25.408 Y2.106
N3045 G01 X25.395 Y2.067
N3050 G02 X23.241 Y-1.394 I-13.395 J5.933
N3055 G01 X23.195 Y-1.523
N3060 G01 X5.909 Y-1.569
N3065 G01 X5.879 Y-1.562
N3070 G01 X5.855 Y-1.543
N3075 G01 X5.842 Y-1.515
N3080 G01 Y-1.485
N3085 G01 X5.846 Y-1.471
N3090 G01 X5.847 Y-1.444
N3095 G01 X5.836 Y-1.418
N3100 G01 X5.817 Y-1.398
N3105 G02 X5.816 Y17.398 I6.183 J9.398
N3110 G01 X5.835 Y17.417
N3115 G01 X5.845 Y17.442
N3120 G01 Y17.47
N3125 G01 X5.841 Y17.485
N3130 G01 Y17.515
N3135 G01 X5.854 Y17.542
N3140 G01 X5.878 Y17.561
N3145 G01 X5.908 Y17.568
N3150 G01 X20.848 Y17.545
N3155 G01 X20.911 Y17.396
N3160 G02 X20.908 Y-1.399 I-8.911 J-9.396
N3165 G01 X20.845 Y-1.548
N3170 G01 X10.796 Y-1.597
N3175 G01 X10.772 Y-1.592
N3180 G01 X10.751 Y-1.58
N3185 G01 X10.736 Y-1.56
N3190 G01 X10.675 Y-1.436
N3195 G01 X10.654 Y-1.412
N3200 G01 X10.625 Y-1.4
N3205 G02 X10.613 Y17.398 I1.375 J9.4
N3210 G01 X10.642 Y17.41
N3215 G01 X10.663 Y17.435
N3220 G01 X10.723 Y17.558
N3225 G01 X10.738 Y17.578
N3230 G01 X10.759 Y17.591
N3235 G01 X10.784 Y17.595
N3240 G01 X18.091 Y17.57
N3245 G01 X18.12 Y17.563
N3250 G01 X18.144 Y17.545
N3255 G01 X18.157 Y17.518
N3260 G01 X18.158 Y17.489
N3265 G01 X18.154 Y17.468
N3270 G01 Y17.442
N3275 G01 X18.164 Y17.417
N3280 G01 X18.183 Y17.398
N3285 G02 X18.184 Y-1.398 I-6.183 J-9.398
N3290 G01 X18.174 Y-1.404
N3295 G01 X18.119 Y-1.441 Z0.008
N3300 G01 X18.066 Y-1.476 Z0.03
N3305 G01 X18.018 Y-1.507 Z0.065
N3310 G01 X17.979 Y-1.533 Z0.113
N3315 G01 X17.949 Y-1.553 Z0.17
N3320 G01 X17.93 Y-1.565 Z0.233
N3325 G01 X17.924 Y-1.569 Z0.3
N3330 G00 Z9
N3335 G00 X13.049 Y17.448
N3340 G01 Z4.6 F333
N3345 G01 Z0.3 F1000
N3350 G01 X13.056 Y17.447 Z0.233
N3355 G01 X13.078 Y17.443 Z0.17
N3360 G01 X13.113 Y17.438 Z0.113
N3365 G01 X13.16 Y17.431 Z0.065
N3370 G01 X13.217 Y17.423 Z0.03
N3375 G01 X13.279 Y17.414 Z0.008
N3380 G01 X13.345 Y17.404 Z0
N3385 G01 X13.375 Y17.4
N3390 G02 X13.387 Y-1.398 I-1.375 J-9.4
N3395 G01 X13.086 Y-1.443
N3400 G01 X13.02 Y-1.452 Z0.008
N3405 G01 X12.957 Y-1.462 Z0.03
N3410 G01 X12.901 Y-1.47 Z0.065
N3415 G01 X12.854 Y-1.477 Z0.113
N3420 G01 X12.819 Y-1.482 Z0.17
N3425 G01 X12.797 Y-1.485 Z0.233
N3430 G01 X12.789 Y-1.486 Z0.3
N3435 G00 Z19

(BORE1)
N3440 G00 X21.475 Y2.575
N3445 G00 Z19
N3450 G00 Z1.7
N3455 G01 Z0 F1000
N3460 G01 X21.625
N3465 G01 X21.664 Y2.581
N3470 G01 X21.698 Y2.599
N3475 G01 X21.726 Y2.627
N3480 G01 X21.744 Y2.661
N3485 G01 X21.75 Y2.7
N3490 G03 X21.25 Z-0.061 I-0.25
N3495 G03 X21.75 Z-0.122 I0.25
N3500 G03 X21.25 Z-0.183 I-0.25
N3505 G03 X21.75 Z-0.244 I0.25
N3510 G03 X21.25 Z-0.306 I-0.25
N3515 G03 X21.75 Z-0.367 I0.25
N3520 G03 X21.25 Z-0.428 I-0.25
N3525 G03 X21.75 Z-0.489 I0.25
N3530 G03 X21.25 Z-0.55 I-0.25
N3535 G03 X21.75 Z-0.611 I0.25
N3540 G03 X21.25 Z-0.672 I-0.25
N3545 G03 X21.75 Z-0.733 I0.25
N3550 G03 X21.25 Z-0.794 I-0.25
N3555 G03 X21.75 Z-0.856 I0.25
N3560 G03 X21.25 Z-0.917 I-0.25
N3565 G03 X21.75 Z-0.978 I0.25
N3570 G03 X21.25 Z-1.039 I-0.25
N3575 G03 X21.75 Z-1.1 I0.25
N3580 G03 X21.25 Z-1.161 I-0.25
N3585 G03 X21.75 Z-1.222 I0.25
N3590 G03 X21.25 Z-1.283 I-0.25
N3595 G03 X21.75 Z-1.344 I0.25
N3600 G03 X21.25 Z-1.406 I-0.25
N3605 G03 X21.75 Z-1.467 I0.25
N3610 G03 X21.25 Z-1.528 I-0.25
N3615 G03 X21.75 Z-1.589 I0.25
N3620 G03 X21.25 Z-1.65 I-0.25
N3625 G03 X21.75 Z-1.711 I0.25
N3630 G03 X21.25 Z-1.772 I-0.25
N3635 G03 X21.75 Z-1.833 I0.25
N3640 G03 X21.25 Z-1.894 I-0.25
N3645 G03 X21.75 Z-1.956 I0.25
N3650 G03 X21.25 Z-2.017 I-0.25
N3655 G03 X21.75 Z-2.078 I0.25
N3660 G03 X21.25 Z-2.139 I-0.25
N3665 G03 X21.75 Z-2.2 I0.25
N3670 G03 X21.25 Z-2.261 I-0.25
N3675 G03 X21.75 Z-2.322 I0.25
N3680 G03 X21.25 Z-2.383 I-0.25
N3685 G03 X21.75 Z-2.444 I0.25
N3690 G03 X21.25 Z-2.506 I-0.25
N3695 G03 X21.75 Z-2.567 I0.25
N3700 G03 X21.25 Z-2.628 I-0.25
N3705 G03 X21.75 Z-2.689 I0.25
N3710 G03 X21.25 Z-2.75 I-0.25
N3715 G03 X21.75 Z-2.811 I0.25
N3720 G03 X21.25 Z-2.872 I-0.25
N3725 G03 X21.75 Z-2.933 I0.25
N3730 G03 X21.25 Z-2.994 I-0.25
N3735 G03 X21.75 Z-3.056 I0.25
N3740 G03 X21.25 Z-3.117 I-0.25
N3745 G03 X21.75 Z-3.178 I0.25
N3750 G03 X21.25 Z-3.239 I-0.25
N3755 G03 X21.75 Z-3.3 I0.25
N3760 G03 X21.25 Z-3.361 I-0.25
N3765 G03 X21.75 Z-3.422 I0.25
N3770 G03 X21.25 Z-3.483 I-0.25
N3775 G03 X21.75 Z-3.544 I0.25
N3780 G03 X21.25 Z-3.606 I-0.25
N3785 G03 X21.75 Z-3.667 I0.25
N3790 G03 X21.25 Z-3.728 I-0.25
N3795 G03 X21.75 Z-3.789 I0.25
N3800 G03 X21.25 Z-3.85 I-0.25
N3805 G03 X21.75 Z-3.911 I0.25
N3810 G03 X21.25 Z-3.972 I-0.25
N3815 G03 X21.464 Y2.453 Z-4 I0.25
N3820 G03 X21.536 Y2.947 I0.036 J0.247
N3825 G03 X21.464 Y2.453 I-0.036 J-0.247
N3830 G01 X21.503
N3835 G01 X21.54 Y2.466
N3840 G01 X21.572 Y2.489
N3845 G01 X21.594 Y2.521
N3850 G01 X21.606 Y2.558
N3855 G01 X21.627 Y2.707
N3860 G00 Z9
N3865 G00 X21.475 Y13.175
N3870 G00 Z1.7
N3875 G01 Z0 F1000
N3880 G01 X21.625
N3885 G01 X21.664 Y13.181
N3890 G01 X21.698 Y13.199
N3895 G01 X21.726 Y13.227
N3900 G01 X21.744 Y13.261
N3905 G01 X21.75 Y13.3
N3910 G03 X21.25 Z-0.061 I-0.25
N3915 G03 X21.75 Z-0.122 I0.25
N3920 G03 X21.25 Z-0.183 I-0.25
N3925 G03 X21.75 Z-0.244 I0.25
N3930 G03 X21.25 Z-0.306 I-0.25
N3935 G03 X21.75 Z-0.367 I0.25
N3940 G03 X21.25 Z-0.428 I-0.25
N3945 G03 X21.75 Z-0.489 I0.25
N3950 G03 X21.25 Z-0.55 I-0.25
N3955 G03 X21.75 Z-0.611 I0.25
N3960 G03 X21.25 Z-0.672 I-0.25
N3965 G03 X21.75 Z-0.733 I0.25
N3970 G03 X21.25 Z-0.794 I-0.25
N3975 G03 X21.75 Z-0.856 I0.25
N3980 G03 X21.25 Z-0.917 I-0.25
N3985 G03 X21.75 Z-0.978 I0.25
N3990 G03 X21.25 Z-1.039 I-0.25
N3995 G03 X21.75 Z-1.1 I0.25
N4000 G03 X21.25 Z-1.161 I-0.25
N4005 G03 X21.75 Z-1.222 I0.25
N4010 G03 X21.25 Z-1.283 I-0.25
N4015 G03 X21.75 Z-1.344 I0.25
N4020 G03 X21.25 Z-1.406 I-0.25
N4025 G03 X21.75 Z-1.467 I0.25
N4030 G03 X21.25 Z-1.528 I-0.25
N4035 G03 X21.75 Z-1.589 I0.25
N4040 G03 X21.25 Z-1.65 I-0.25
N4045 G03 X21.75 Z-1.711 I0.25
N4050 G03 X21.25 Z-1.772 I-0.25
N4055 G03 X21.75 Z-1.833 I0.25
N4060 G03 X21.25 Z-1.894 I-0.25
N4065 G03 X21.75 Z-1.956 I0.25
N4070 G03 X21.25 Z-2.017 I-0.25
N4075 G03 X21.75 Z-2.078 I0.25
N4080 G03 X21.25 Z-2.139 I-0.25
N4085 G03 X21.75 Z-2.2 I0.25
N4090 G03 X21.25 Z-2.261 I-0.25
N4095 G03 X21.75 Z-2.322 I0.25
N4100 G03 X21.25 Z-2.383 I-0.25
N4105 G03 X21.75 Z-2.444 I0.25
N4110 G03 X21.25 Z-2.506 I-0.25
N4115 G03 X21.75 Z-2.567 I0.25
N4120 G03 X21.25 Z-2.628 I-0.25
N4125 G03 X21.75 Z-2.689 I0.25
N4130 G03 X21.25 Z-2.75 I-0.25
N4135 G03 X21.75 Z-2.811 I0.25
N4140 G03 X21.25 Z-2.872 I-0.25
N4145 G03 X21.75 Z-2.933 I0.25
N4150 G03 X21.25 Z-2.994 I-0.25
N4155 G03 X21.75 Z-3.056 I0.25
N4160 G03 X21.25 Z-3.117 I-0.25
N4165 G03 X21.75 Z-3.178 I0.25
N4170 G03 X21.25 Z-3.239 I-0.25
N4175 G03 X21.75 Z-3.3 I0.25
N4180 G03 X21.25 Z-3.361 I-0.25
N4185 G03 X21.75 Z-3.422 I0.25
N4190 G03 X21.25 Z-3.483 I-0.25
N4195 G03 X21.75 Z-3.544 I0.25
N4200 G03 X21.25 Z-3.606 I-0.25
N4205 G03 X21.75 Z-3.667 I0.25
N4210 G03 X21.25 Z-3.728 I-0.25
N4215 G03 X21.75 Z-3.789 I0.25
N4220 G03 X21.25 Z-3.85 I-0.25
N4225 G03 X21.75 Z-3.911 I0.25
N4230 G03 X21.25 Z-3.972 I-0.25
N4235 G03 X21.464 Y13.053 Z-4 I0.25
N4240 G03 X21.536 Y13.547 I0.036 J0.247
N4245 G03 X21.464 Y13.053 I-0.036 J-0.247
N4250 G01 X21.503
N4255 G01 X21.54 Y13.066
N4260 G01 X21.572 Y13.089
N4265 G01 X21.594 Y13.121
N4270 G01 X21.606 Y13.158
N4275 G01 X21.627 Y13.307
N4280 G00 Z9
N4285 G00 X2.475 Y13.175
N4290 G00 Z1.7
N4295 G01 Z0 F1000
N4300 G01 X2.625
N4305 G01 X2.664 Y13.181
N4310 G01 X2.698 Y13.199
N4315 G01 X2.726 Y13.227
N4320 G01 X2.744 Y13.261
N4325 G01 X2.75 Y13.3
N4330 G03 X2.25 Z-0.061 I-0.25
N4335 G03 X2.75 Z-0.122 I0.25
N4340 G03 X2.25 Z-0.183 I-0.25
N4345 G03 X2.75 Z-0.244 I0.25
N4350 G03 X2.25 Z-0.306 I-0.25
N4355 G03 X2.75 Z-0.367 I0.25
N4360 G03 X2.25 Z-0.428 I-0.25
N4365 G03 X2.75 Z-0.489 I0.25
N4370 G03 X2.25 Z-0.55 I-0.25
N4375 G03 X2.75 Z-0.611 I0.25
N4380 G03 X2.25 Z-0.672 I-0.25
N4385 G03 X2.75 Z-0.733 I0.25
N4390 G03 X2.25 Z-0.794 I-0.25
N4395 G03 X2.75 Z-0.856 I0.25
N4400 G03 X2.25 Z-0.917 I-0.25
N4405 G03 X2.75 Z-0.978 I0.25
N4410 G03 X2.25 Z-1.039 I-0.25
N4415 G03 X2.75 Z-1.1 I0.25
N4420 G03 X2.25 Z-1.161 I-0.25
N4425 G03 X2.75 Z-1.222 I0.25
N4430 G03 X2.25 Z-1.283 I-0.25
N4435 G03 X2.75 Z-1.344 I0.25
N4440 G03 X2.25 Z-1.406 I-0.25
N4445 G03 X2.75 Z-1.467 I0.25
N4450 G03 X2.25 Z-1.528 I-0.25
N4455 G03 X2.75 Z-1.589 I0.25
N4460 G03 X2.25 Z-1.65 I-0.25
N4465 G03 X2.75 Z-1.711 I0.25
N4470 G03 X2.25 Z-1.772 I-0.25
N4475 G03 X2.75 Z-1.833 I0.25
N4480 G03 X2.25 Z-1.894 I-0.25
N4485 G03 X2.75 Z-1.956 I0.25
N4490 G03 X2.25 Z-2.017 I-0.25
N4495 G03 X2.75 Z-2.078 I0.25
N4500 G03 X2.25 Z-2.139 I-0.25
N4505 G03 X2.75 Z-2.2 I0.25
N4510 G03 X2.25 Z-2.261 I-0.25
N4515 G03 X2.75 Z-2.322 I0.25
N4520 G03 X2.25 Z-2.383 I-0.25
N4525 G03 X2.75 Z-2.444 I0.25
N4530 G03 X2.25 Z-2.506 I-0.25
N4535 G03 X2.75 Z-2.567 I0.25
N4540 G03 X2.25 Z-2.628 I-0.25
N4545 G03 X2.75 Z-2.689 I0.25
N4550 G03 X2.25 Z-2.75 I-0.25
N4555 G03 X2.75 Z-2.811 I0.25
N4560 G03 X2.25 Z-2.872 I-0.25
N4565 G03 X2.75 Z-2.933 I0.25
N4570 G03 X2.25 Z-2.994 I-0.25
N4575 G03 X2.75 Z-3.056 I0.25
N4580 G03 X2.25 Z-3.117 I-0.25
N4585 G03 X2.75 Z-3.178 I0.25
N4590 G03 X2.25 Z-3.239 I-0.25
N4595 G03 X2.75 Z-3.3 I0.25
N4600 G03 X2.25 Z-3.361 I-0.25
N4605 G03 X2.75 Z-3.422 I0.25
N4610 G03 X2.25 Z-3.483 I-0.25
N4615 G03 X2.75 Z-3.544 I0.25
N4620 G03 X2.25 Z-3.606 I-0.25
N4625 G03 X2.75 Z-3.667 I0.25
N4630 G03 X2.25 Z-3.728 I-0.25
N4635 G03 X2.75 Z-3.789 I0.25
N4640 G03 X2.25 Z-3.85 I-0.25
N4645 G03 X2.75 Z-3.911 I0.25
N4650 G03 X2.25 Z-3.972 I-0.25
N4655 G03 X2.464 Y13.053 Z-4 I0.25
N4660 G03 X2.536 Y13.547 I0.036 J0.247
N4665 G03 X2.464 Y13.053 I-0.036 J-0.247
N4670 G01 X2.503
N4675 G01 X2.54 Y13.066
N4680 G01 X2.572 Y13.089
N4685 G01 X2.594 Y13.121
N4690 G01 X2.606 Y13.158
N4695 G01 X2.627 Y13.307
N4700 G00 Z9
N4705 G00 X2.475 Y2.575
N4710 G00 Z1.7
N4715 G01 Z0 F1000
N4720 G01 X2.625
N4725 G01 X2.664 Y2.581
N4730 G01 X2.698 Y2.599
N4735 G01 X2.726 Y2.627
N4740 G01 X2.744 Y2.661
N4745 G01 X2.75 Y2.7
N4750 G03 X2.25 Z-0.061 I-0.25
N4755 G03 X2.75 Z-0.122 I0.25
N4760 G03 X2.25 Z-0.183 I-0.25
N4765 G03 X2.75 Z-0.244 I0.25
N4770 G03 X2.25 Z-0.306 I-0.25
N4775 G03 X2.75 Z-0.367 I0.25
N4780 G03 X2.25 Z-0.428 I-0.25
N4785 G03 X2.75 Z-0.489 I0.25
N4790 G03 X2.25 Z-0.55 I-0.25
N4795 G03 X2.75 Z-0.611 I0.25
N4800 G03 X2.25 Z-0.672 I-0.25
N4805 G03 X2.75 Z-0.733 I0.25
N4810 G03 X2.25 Z-0.794 I-0.25
N4815 G03 X2.75 Z-0.856 I0.25
N4820 G03 X2.25 Z-0.917 I-0.25
N4825 G03 X2.75 Z-0.978 I0.25
N4830 G03 X2.25 Z-1.039 I-0.25
N4835 G03 X2.75 Z-1.1 I0.25
N4840 G03 X2.25 Z-1.161 I-0.25
N4845 G03 X2.75 Z-1.222 I0.25
N4850 G03 X2.25 Z-1.283 I-0.25
N4855 G03 X2.75 Z-1.344 I0.25
N4860 G03 X2.25 Z-1.406 I-0.25
N4865 G03 X2.75 Z-1.467 I0.25
N4870 G03 X2.25 Z-1.528 I-0.25
N4875 G03 X2.75 Z-1.589 I0.25
N4880 G03 X2.25 Z-1.65 I-0.25
N4885 G03 X2.75 Z-1.711 I0.25
N4890 G03 X2.25 Z-1.772 I-0.25
N4895 G03 X2.75 Z-1.833 I0.25
N4900 G03 X2.25 Z-1.894 I-0.25
N4905 G03 X2.75 Z-1.956 I0.25
N4910 G03 X2.25 Z-2.017 I-0.25
N4915 G03 X2.75 Z-2.078 I0.25
N4920 G03 X2.25 Z-2.139 I-0.25
N4925 G03 X2.75 Z-2.2 I0.25
N4930 G03 X2.25 Z-2.261 I-0.25
N4935 G03 X2.75 Z-2.322 I0.25
N4940 G03 X2.25 Z-2.383 I-0.25
N4945 G03 X2.75 Z-2.444 I0.25
N4950 G03 X2.25 Z-2.506 I-0.25
N4955 G03 X2.75 Z-2.567 I0.25
N4960 G03 X2.25 Z-2.628 I-0.25
N4965 G03 X2.75 Z-2.689 I0.25
N4970 G03 X2.25 Z-2.75 I-0.25
N4975 G03 X2.75 Z-2.811 I0.25
N4980 G03 X2.25 Z-2.872 I-0.25
N4985 G03 X2.75 Z-2.933 I0.25
N4990 G03 X2.25 Z-2.994 I-0.25
N4995 G03 X2.75 Z-3.056 I0.25
N5000 G03 X2.25 Z-3.117 I-0.25
N5005 G03 X2.75 Z-3.178 I0.25
N5010 G03 X2.25 Z-3.239 I-0.25
N5015 G03 X2.75 Z-3.3 I0.25
N5020 G03 X2.25 Z-3.361 I-0.25
N5025 G03 X2.75 Z-3.422 I0.25
N5030 G03 X2.25 Z-3.483 I-0.25
N5035 G03 X2.75 Z-3.544 I0.25
N5040 G03 X2.25 Z-3.606 I-0.25
N5045 G03 X2.75 Z-3.667 I0.25
N5050 G03 X2.25 Z-3.728 I-0.25
N5055 G03 X2.75 Z-3.789 I0.25
N5060 G03 X2.25 Z-3.85 I-0.25
N5065 G03 X2.75 Z-3.911 I0.25
N5070 G03 X2.25 Z-3.972 I-0.25
N5075 G03 X2.464 Y2.453 Z-4 I0.25
N5080 G03 X2.536 Y2.947 I0.036 J0.247
N5085 G03 X2.464 Y2.453 I-0.036 J-0.247
N5090 G01 X2.503
N5095 G01 X2.54 Y2.466
N5100 G01 X2.572 Y2.489
N5105 G01 X2.594 Y2.521
N5110 G01 X2.606 Y2.558
N5115 G01 X2.627 Y2.707
N5120 G00 Z19
N5125 G28 G91 Z0
N5130 G90
N5135 G49

N5140 M09
N5145 G100 T01
N5150 G53 G00 X0 Y0
N5155 M30
